X:358
T:Happy Miller,The. (p)1696.PLFD.358
M:4/4
L:1/4
Q:1/2=120
S:Playford, Dancing Master,9th Ed,1st Supp.,1696.
O:England
H:1696.
Z:Chris Partington
K:G
g|g2fe|d2cB|cBAG|d2cB|e2fg|f2ga|a2A2|d2cB|
A2AB|c2cd|efge|f3f|gfed|dcBc|d2D2|G3:|
